static/assets/svg/human/humanClothes/female_skirt2_stickers/female_skirt2_sticker1.svg

<svg class="bottomOverlay" width="86" height="380" viewBox="202.715 584.407 86.59 380.048" xmlns="http://www.w3.org/2000/svg"><defs><linearGradient id="a" gradientUnits="userSpaceOnUse" x1="249.436" y1="758.971" x2="249.436" y2="863.421"><stop offset="0" stop-color="#fff700"/><stop offset="1" stop-color="#999400"/></linearGradient><linearGradient id="b" gradientUnits="userSpaceOnUse" x1="249.943" y1="838.99" x2="249.943" y2="891.998"><stop offset="0" stop-color="#fff700"/><stop offset="1" stop-color="#999400"/></linearGradient><linearGradient id="c" gradientUnits="userSpaceOnUse" x1="214.253" y1="875.533" x2="214.253" y2="924.614"><stop offset="0" stop-color="#fff700"/><stop offset="1" stop-color="#999400"/></linearGradient><linearGradient id="d" gradientUnits="userSpaceOnUse" x1="256.133" y1="897.458" x2="256.133" y2="933.76"><stop offset="0" stop-color="#fff700"/><stop offset="1" stop-color="#999400"/></linearGradient></defs><path d="M222.814 776.258c4.9 0 8.162 21.072 3.045 26.189-3.69 3.691-15.736-2.386-6.091 2.436 18.162 9.081 10.963-27.407 10.963-27.407s3.993 7.716 4.264 8.527c1.601 4.805 9.258 17.541 14.008 20.708 10.424 6.949 13.184-.717 21.926 3.654 11.097 5.548-5.518 27.442 10.963 10.963 3.222-3.222-3.461-13.011-4.264-14.617-2.711-5.424-27.839-11.317-21.317-24.362 1.943-3.886 10.963-2.437 10.963-2.437s-17.565-14.714-12.181-20.098c.44-.44-3.888 6.325-5.481 7.917-.191.192-4.518-2.868-4.872-3.045-2.1-1.05-7.163-.463-8.527-1.827-.873-.873-.609-4.889-.609-3.654 0 2.831 25.988 23.244 14.008 29.234-8.575 4.288-22.535-39.685-22.535-15.226 0 2.956-6.437-4.527-8.527-2.436-1.264 1.264.609 18.047.609 20.707 0 22.928 2.299 49.265 24.362 60.296 7.161 3.581 25.992 17.86 35.325 8.527 2.838-2.838-1.104-5.291-1.827-10.354-.105-.739.107-9.851-1.218-8.526-1.5 1.5-2.042 8.544-3.654 10.963-4.647 6.97-23.348-8.936-25.58-13.4-1.458-2.915 3.085-6.821 3.654-8.526 1.311-3.934 7.054-11.827 13.399-5.482.945.945 2.436 7.918 2.436 7.918s.279-6.421 0-6.7c-2.093-2.093-17.774-20.595-26.189-12.181-.76.76-5.973 10.472-6.09 10.354-2.143-2.143-5.622-7.028-3.655-10.963.686-1.372 6.011-7.388 4.873-8.527-1.927-1.927-6.091-1.486-6.091-5.481" stroke="#000" fill="url(#a)"/><path d="M226.468 842.645c0-2.594-3.323 5.373-3.654 6.699-1.422 5.687-3.046 8.782-3.046 15.227 0 13.183 12.115 18.813 18.881 25.58 7.655 7.655 15.226-10.963 15.226-10.963s-2.904 8.901-8.526 6.09c-4.119-2.059-19.234-14.872-12.181-21.926.935-.935 10.621-2.778 12.181-1.218.423.424 1.827 9.745 1.827 9.745s7.631-3.941 9.745-1.827c3.95 3.951 12.918 6.379 18.88 10.354 3.263 2.175.343 10.963 4.263 10.963.398 0-1.492-16.582-3.654-17.663-19.058-9.529-39.701-14.234-49.942-34.716" stroke="#000" fill="url(#b)"/><path d="M210.024 875.533c16.96 0 7.511 43.649 2.436 48.725-2.158 2.158-.609-6.084-.609-9.136 0-3.504-1.746-15.917.609-18.272.908-.908-2.371 1.218-3.655 1.218" stroke="#000" fill="url(#c)"/><path d="M245.958 924.867c4.641 0-7.906-2.424-7.918-2.437-4.937-4.937-7.031-14.894-1.218-20.707 5.394-5.394 25.363-5.286 32.28-1.827 3.233 1.616 8.526 10.314 8.526 6.699 0-3.243-21.901-.633-23.144.609-6.501 6.502 15.836 5.482 15.836 5.482s-11.645 4.336-12.181 4.872c-.178.178 3.081 7.936 4.263 8.527 6.327 3.163 11.185 4.041 16.444-1.218.254-.254 0-6.091 0-6.091s-3.115 12.252-3.654 12.79c-7.241 7.242-25.002-5.512-28.016-8.527" stroke="#000" fill="url(#d)"/></svg>

<svg class="bottomOverlay" width="86" height="380" viewBox="202.71499633789062 584.406982421875 86.58999633789062 380.0480041503906" preserveAspectRatio="xMidYMid meet" xmlns="http://www.w3.org/2000/svg">
  <defs id="svgEditorDefs">
    <path id="svgEditorClosePathDefs" class="lines" fill="black" style="stroke-width: 0px; stroke: none;"/>
    <linearGradient id="gradient-0" gradientUnits="userSpaceOnUse" x1="249.436" y1="758.971" x2="249.436" y2="863.421">
      <stop offset="0" style="stop-color: rgba(255, 247, 0, 1)"/>
      <stop offset="1" style="stop-color: rgba(153, 148, 0, 1)"/>
    </linearGradient>
    <linearGradient id="gradient-1" gradientUnits="userSpaceOnUse" x1="249.943" y1="838.99" x2="249.943" y2="891.998">
      <stop offset="0" style="stop-color: rgba(255, 247, 0, 1)"/>
      <stop offset="1" style="stop-color: rgba(153, 148, 0, 1)"/>
    </linearGradient>
    <linearGradient id="gradient-2" gradientUnits="userSpaceOnUse" x1="214.253" y1="875.533" x2="214.253" y2="924.614">
      <stop offset="0" style="stop-color: rgba(255, 247, 0, 1)"/>
      <stop offset="1" style="stop-color: rgba(153, 148, 0, 1)"/>
    </linearGradient>
    <linearGradient id="gradient-3" gradientUnits="userSpaceOnUse" x1="256.133" y1="897.458" x2="256.133" y2="933.76">
      <stop offset="0" style="stop-color: rgba(255, 247, 0, 1)"/>
      <stop offset="1" style="stop-color: rgba(153, 148, 0, 1)"/>
    </linearGradient>
  </defs>
  <path d="M 222.814 776.258 C 227.714 776.258 230.976 797.33 225.859 802.447 C 222.169 806.138 210.123 800.061 219.768 804.883 C 237.93 813.964 230.731 777.476 230.731 777.476 C 230.731 777.476 234.724 785.192 234.995 786.003 C 236.596 790.808 244.253 803.544 249.003 806.711 C 259.427 813.66 262.187 805.994 270.929 810.365 C 282.026 815.913 265.411 837.807 281.892 821.328 C 285.114 818.106 278.431 808.317 277.628 806.711 C 274.917 801.287 249.789 795.394 256.311 782.349 C 258.254 778.463 267.274 779.912 267.274 779.912 C 267.274 779.912 249.709 765.198 255.093 759.814 C 255.533 759.374 251.205 766.139 249.612 767.731 C 249.421 767.923 245.094 764.863 244.74 764.686 C 242.64 763.636 237.577 764.223 236.213 762.859 C 235.34 761.986 235.604 757.97 235.604 759.205 C 235.604 762.036 261.592 782.449 249.612 788.439 C 241.037 792.727 227.077 748.754 227.077 773.213 C 227.077 776.169 220.64 768.686 218.55 770.777 C 217.286 772.041 219.159 788.824 219.159 791.484 C 219.159 814.412 221.458 840.749 243.521 851.78 C 250.682 855.361 269.513 869.64 278.846 860.307 C 281.684 857.469 277.742 855.016 277.019 849.953 C 276.914 849.214 277.126 840.102 275.801 841.427 C 274.301 842.927 273.759 849.971 272.147 852.39 C 267.5 859.36 248.799 843.454 246.567 838.99 C 245.109 836.075 249.652 832.169 250.221 830.464 C 251.532 826.53 257.275 818.637 263.62 824.982 C 264.565 825.927 266.056 832.9 266.056 832.9 C 266.056 832.9 266.335 826.479 266.056 826.2 C 263.963 824.107 248.282 805.605 239.867 814.019 C 239.107 814.779 233.894 824.491 233.777 824.373 C 231.634 822.23 228.155 817.345 230.122 813.41 C 230.808 812.038 236.133 806.022 234.995 804.883 C 233.068 802.956 228.904 803.397 228.904 799.402" style="stroke: rgb(0, 0, 0); fill: url(#gradient-0);"/>
  <path d="M 226.468 842.645 C 226.468 840.051 223.145 848.018 222.814 849.344 C 221.392 855.031 219.768 858.126 219.768 864.571 C 219.768 877.754 231.883 883.384 238.649 890.151 C 246.304 897.806 253.875 879.188 253.875 879.188 C 253.875 879.188 250.971 888.089 245.349 885.278 C 241.23 883.219 226.115 870.406 233.168 863.352 C 234.103 862.417 243.789 860.574 245.349 862.134 C 245.772 862.558 247.176 871.879 247.176 871.879 C 247.176 871.879 254.807 867.938 256.921 870.052 C 260.871 874.003 269.839 876.431 275.801 880.406 C 279.064 882.581 276.144 891.369 280.064 891.369 C 280.462 891.369 278.572 874.787 276.41 873.706 C 257.352 864.177 236.709 859.472 226.468 838.99" style="stroke: rgb(0, 0, 0); fill: url(#gradient-1);"/>
  <path d="M 210.024 875.533 C 226.984 875.533 217.535 919.182 212.46 924.258 C 210.302 926.416 211.851 918.174 211.851 915.122 C 211.851 911.618 210.105 899.205 212.46 896.85 C 213.368 895.942 210.089 898.068 208.805 898.068" style="stroke: rgb(0, 0, 0); fill: url(#gradient-2);"/>
  <path d="M 245.958 924.867 C 250.599 924.867 238.052 922.443 238.04 922.43 C 233.103 917.493 231.009 907.536 236.822 901.723 C 242.216 896.329 262.185 896.437 269.102 899.896 C 272.335 901.512 277.628 910.21 277.628 906.595 C 277.628 903.352 255.727 905.962 254.484 907.204 C 247.983 913.706 270.32 912.686 270.32 912.686 C 270.32 912.686 258.675 917.022 258.139 917.558 C 257.961 917.736 261.22 925.494 262.402 926.085 C 268.729 929.248 273.587 930.126 278.846 924.867 C 279.1 924.613 278.846 918.776 278.846 918.776 C 278.846 918.776 275.731 931.028 275.192 931.566 C 267.951 938.808 250.19 926.054 247.176 923.039" style="stroke: rgb(0, 0, 0); fill: url(#gradient-3);"/>
</svg>
